src/files/themes/default/assets/dark/knob-fg.svg

<?xml version="1.0" encoding="UTF-8" standalone="no"?>
<svg
   width="128"
   height="128"
   viewBox="0 0 128 128"
   fill="none"
   version="1.1"
   id="svg29"
   sodipodi:docname="knob-fg.svg"
   inkscape:version="1.1 (c68e22c387, 2021-05-23)"
   xmlns:inkscape="http://www.inkscape.org/namespaces/inkscape"
   xmlns:sodipodi="http://sodipodi.sourceforge.net/DTD/sodipodi-0.dtd"
   xmlns="http://www.w3.org/2000/svg"
   xmlns:svg="http://www.w3.org/2000/svg">
  <sodipodi:namedview
     id="namedview31"
     pagecolor="#ffffff"
     bordercolor="#666666"
     borderopacity="1.0"
     inkscape:pageshadow="2"
     inkscape:pageopacity="0.0"
     inkscape:pagecheckerboard="0"
     showgrid="false"
     fit-margin-top="0"
     fit-margin-left="0"
     fit-margin-right="0"
     fit-margin-bottom="0"
     inkscape:zoom="4.8982036"
     inkscape:cx="62.471883"
     inkscape:cy="100.13875"
     inkscape:window-width="1920"
     inkscape:window-height="1009"
     inkscape:window-x="0"
     inkscape:window-y="0"
     inkscape:window-maximized="1"
     inkscape:current-layer="svg29" />
  <circle
     cx="-64"
     cy="64"
     r="64"
     transform="rotate(-90)"
     fill="#15161d"
     id="circle2" />
  <g
     filter="url(#filter0_d)"
     id="g6"
     transform="translate(-19.000099,-16.000003)">
    <path
       d="m 42.4453,43.0396 c 0.6063,-1.6715 1.9228,-2.988 3.5943,-3.5944 l 10.1996,-3.6998 c 0.6621,-0.2401 1.2767,-0.595 1.8157,-1.0483 l 8.3039,-6.9831 c 1.3609,-1.1444 3.1592,-1.6263 4.91,-1.3156 l 10.683,1.8956 c 0.6934,0.123 1.4031,0.123 2.0965,0 l 10.683,-1.8956 c 1.7507,-0.3107 3.5491,0.1712 4.91,1.3156 l 8.3037,6.9831 c 0.539,0.4533 1.154,0.8082 1.816,1.0483 l 10.199,3.6999 c 1.672,0.6063 2.988,1.9228 3.595,3.5943 l 3.7,10.1996 c 0.24,0.662 0.595,1.2766 1.048,1.8156 l 6.983,8.304 c 1.144,1.3608 1.626,3.1592 1.316,4.9099 l -1.896,10.683 c -0.123,0.6935 -0.123,1.4031 0,2.0966 l 1.896,10.683 c 0.31,1.7507 -0.172,3.5491 -1.316,4.9099 l -6.983,8.3038 c -0.453,0.539 -0.808,1.154 -1.048,1.816 l -3.7,10.199 c -0.607,1.672 -1.923,2.988 -3.595,3.595 l -10.199,3.7 c -0.662,0.24 -1.277,0.595 -1.816,1.048 l -8.3037,6.983 c -1.3609,1.144 -3.1593,1.626 -4.91,1.316 l -10.683,-1.896 c -0.6934,-0.123 -1.4031,-0.123 -2.0965,0 l -10.683,1.896 c -1.7508,0.31 -3.5491,-0.172 -4.91,-1.316 l -8.3039,-6.983 c -0.539,-0.453 -1.1536,-0.808 -1.8157,-1.048 l -10.1996,-3.7 c -1.6715,-0.607 -2.988,-1.923 -3.5943,-3.595 l -3.6998,-10.199 c -0.2402,-0.662 -0.595,-1.277 -1.0483,-1.816 L 30.714,96.6412 C 29.5696,95.2804 29.0877,93.482 29.3984,91.7313 l 1.8956,-10.683 c 0.1231,-0.6935 0.1231,-1.4031 0,-2.0966 l -1.8956,-10.683 c -0.3107,-1.7507 0.1712,-3.5491 1.3156,-4.9099 l 6.9832,-8.304 c 0.4533,-0.539 0.8081,-1.1536 1.0483,-1.8156 z"
       fill="#222229"
       id="path4" />
  </g>
  <rect
     x="-92.509651"
     y="-44.000141"
     width="6"
     height="32"
     rx="3"
     transform="rotate(-135)"
     fill="#8212f2"
     id="rect8" />
  <defs
     id="defs27">
    <filter
       id="filter0_d"
       x="0.68603498"
       y="1.6859699"
       width="164.62801"
       height="164.62801"
       filterUnits="userSpaceOnUse"
       color-interpolation-filters="sRGB">
      <feFlood
         flood-opacity="0"
         result="BackgroundImageFix"
         id="feFlood10" />
      <feColorMatrix
         in="SourceAlpha"
         type="matrix"
         values="0 0 0 0 0 0 0 0 0 0 0 0 0 0 0 0 0 0 127 0"
         result="hardAlpha"
         id="feColorMatrix12" />
      <feOffset
         dy="4"
         id="feOffset14" />
      <feGaussianBlur
         stdDeviation="2"
         id="feGaussianBlur16" />
      <feComposite
         in2="hardAlpha"
         operator="out"
         id="feComposite18" />
      <feColorMatrix
         type="matrix"
         values="0 0 0 0 0 0 0 0 0 0 0 0 0 0 0 0 0 0 0.25 0"
         id="feColorMatrix20" />
      <feBlend
         mode="normal"
         in2="BackgroundImageFix"
         result="effect1_dropShadow"
         id="feBlend22" />
      <feBlend
         mode="normal"
         in="SourceGraphic"
         in2="effect1_dropShadow"
         result="shape"
         id="feBlend24" />
    </filter>
  </defs>
</svg>

<svg width="166" height="167" viewBox="0 0 166 167" fill="none" xmlns="http://www.w3.org/2000/svg">
<circle cx="83.0001" cy="80" r="64" transform="rotate(-90 83.0001 80)" fill="#15161D"/>
<g filter="url(#filter0_d)">
<path d="M42.4453 43.0396C43.0516 41.3681 44.3681 40.0516 46.0396 39.4452L56.2392 35.7454C56.9013 35.5053 57.5159 35.1504 58.0549 34.6971L66.3588 27.714C67.7197 26.5696 69.518 26.0877 71.2688 26.3984L81.9518 28.294C82.6452 28.417 83.3549 28.417 84.0483 28.294L94.7313 26.3984C96.482 26.0877 98.2804 26.5696 99.6413 27.714L107.945 34.6971C108.484 35.1504 109.099 35.5053 109.761 35.7454L119.96 39.4453C121.632 40.0516 122.948 41.3681 123.555 43.0396L127.255 53.2392C127.495 53.9012 127.85 54.5158 128.303 55.0548L135.286 63.3588C136.43 64.7196 136.912 66.518 136.602 68.2687L134.706 78.9517C134.583 79.6452 134.583 80.3548 134.706 81.0483L136.602 91.7313C136.912 93.482 136.43 95.2804 135.286 96.6412L128.303 104.945C127.85 105.484 127.495 106.099 127.255 106.761L123.555 116.96C122.948 118.632 121.632 119.948 119.96 120.555L109.761 124.255C109.099 124.495 108.484 124.85 107.945 125.303L99.6413 132.286C98.2804 133.43 96.482 133.912 94.7313 133.602L84.0483 131.706C83.3549 131.583 82.6452 131.583 81.9518 131.706L71.2688 133.602C69.518 133.912 67.7197 133.43 66.3588 132.286L58.0549 125.303C57.5159 124.85 56.9013 124.495 56.2392 124.255L46.0396 120.555C44.3681 119.948 43.0516 118.632 42.4453 116.96L38.7455 106.761C38.5053 106.099 38.1505 105.484 37.6972 104.945L30.714 96.6412C29.5696 95.2804 29.0877 93.482 29.3984 91.7313L31.294 81.0483C31.4171 80.3548 31.4171 79.6452 31.294 78.9517L29.3984 68.2687C29.0877 66.518 29.5696 64.7196 30.714 63.3588L37.6972 55.0548C38.1505 54.5158 38.5053 53.9012 38.7455 53.2392L42.4453 43.0396Z" fill="#222229"/>
</g>
<rect x="53.3015" y="112.527" width="6" height="32" rx="3" transform="rotate(-135 53.3015 112.527)" fill="#8212F2"/>
<defs>
<filter id="filter0_d" x="0.686035" y="1.68597" width="164.628" height="164.628" filterUnits="userSpaceOnUse" color-interpolation-filters="sRGB">
<feFlood flood-opacity="0" result="BackgroundImageFix"/>
<feColorMatrix in="SourceAlpha" type="matrix" values="0 0 0 0 0 0 0 0 0 0 0 0 0 0 0 0 0 0 127 0" result="hardAlpha"/>
<feOffset dy="4"/>
<feGaussianBlur stdDeviation="2"/>
<feComposite in2="hardAlpha" operator="out"/>
<feColorMatrix type="matrix" values="0 0 0 0 0 0 0 0 0 0 0 0 0 0 0 0 0 0 0.25 0"/>
<feBlend mode="normal" in2="BackgroundImageFix" result="effect1_dropShadow"/>
<feBlend mode="normal" in="SourceGraphic" in2="effect1_dropShadow" result="shape"/>
</filter>
</defs>
</svg>
